X: 1101
M: 6/8
L: 1/8
K: G
d/e/f/ |\
g2z B2z | c2z e2z | d2z ezf | g3 z ||
|: DG |\
|: G |\
e3-  edc | d3- dcB | A2D E2F | G2A BAG |\
EF^G A3  | DGA B3  | dcB  ABA | G3  z2 H:|
K: C
EzG ^FzG | AzG Gzc | czB Bzd | dzc czG |\
EzG ^FzG | AzG GzA | czB BzA | G3 z2 :|
|: G |\
=f2z e2z | d2z c2z | BcB ABA | GGG G2G |\
EzG ^FzG | Az=F (d2c) | cBA G^FG | (A2G) EzG |\
EzG ^FzG | Az=F c3- | cBA GFE | C3 "^da Capo"z2 :|

